X:457
T:B457-  Tell Me, Jenny
Q:1/4=120
L:1/4
M:4/4
K:Am
ABc(B/A/)|(^G/A/)BBE|ABc3/2d/|(c/B/)ec(B/B/)|\
ABc(B/A/)|(G/A/)BBE/E/|ABc3/2d/|(c/B/)ec(B/A/)||\
ccc2|def2|ee(e/f/)g|fedc|\
eee2|ddd2|ee/^G/A3/2B/|B3/2A/^GE|\
BBB2|^c3/2c/d2|(f/e/) (d/c/) (B/A/) (E/A/)|A3/2^G/BA|]



